public/brands/strongloop.svg

<?xml version="1.0" encoding="UTF-8" standalone="no"?>
<svg width="256px" height="210px" viewBox="0 0 256 210" version="1.1" xmlns="http://www.w3.org/2000/svg" xmlns:xlink="http://www.w3.org/1999/xlink" preserveAspectRatio="xMidYMid">
	<g>
		<path d="M140.95127,59.232061 L164.43327,45.6740842 L187.915269,59.232061 L187.915269,86.3514819 L164.43327,99.9059911 L140.95127,86.3514819 L140.95127,59.232061" fill="#07592B"></path>
		<path d="M154.849063,61.7806832 L187.623998,42.8584635 L220.395466,61.7806832 L220.395466,99.6251225 L187.623998,118.547342 L154.849063,99.6251225 L154.849063,61.7806832" fill="#7DBD33"></path>
		<path d="M218.439788,61.1149206 L187.610128,43.125462 L187.610128,36.6238747 L208.377065,24.6713566 L255.358402,51.7942451 L255.358402,156.790546 L164.429802,209.288696 L125.305851,186.812275 L125.305851,140.975218 L165.01928,118.221396 L186.420771,130.683639 L186.420771,79.9712576 L218.439788,61.1149206" fill="#07592B"></path>
		<path d="M179.485745,143.718021 L204.094686,129.508152 L228.703628,143.718021 L228.703628,172.134292 L204.094686,186.344161 L179.485745,172.134292 L179.485745,143.718021" fill="#7DBD33"></path>
		<path d="M74.284861,130.912494 L96.9242548,117.843437 L119.563649,130.912494 L119.563649,157.054077 L96.9242548,170.123134 L74.284861,157.054077 L74.284861,130.912494" fill="#7DBD33"></path>
		<path d="M74.2952635,101.979564 L89.9892284,92.918952 L105.683193,101.979564 L105.683193,120.104256 L89.9892284,129.164868 L74.2952635,120.104256 L74.2952635,101.979564" fill="#07592B"></path>
		<path d="M73.9103695,52.1895416 L95.5164444,39.7168965 L117.122519,52.1895416 L117.122519,77.1382993 L95.5164444,89.6144119 L73.9103695,77.1382993 L73.9103695,52.1895416" fill="#7DBD33"></path>
		<path d="M116.657873,84.1842861 L140.379131,70.4910764 L164.096921,84.1842861 L164.096921,111.570706 L140.379131,125.263915 L116.657873,111.570706 L116.657873,84.1842861" fill="#07592B"></path>
		<path d="M39.6235987,52.5328254 L49.4990764,46.8322337 L59.3745541,52.5328254 L59.3745541,63.9374764 L49.4990764,69.6380681 L39.6235987,63.9374764 L39.6235987,52.5328254" fill="#07592B"></path>
		<path d="M44.3914294,106.71272 L54.2669071,101.012128 L64.1423848,106.71272 L64.1423848,118.117371 L54.2669071,123.817962 L44.3914294,118.117371 L44.3914294,106.71272" fill="#7DBD33"></path>
		<path d="M112.996179,165.497471 L125.312786,158.385602 L137.629393,165.497471 L137.629393,179.717743 L125.312786,186.829613 L112.996179,179.717743 L112.996179,165.497471" fill="#7DBD33"></path>
		<path d="M24.1688923,65.1753786 L29.4152398,62.1447721 L34.6650548,65.1753786 L34.6650548,71.2331242 L29.4152398,74.2637308 L24.1688923,71.2331242 L24.1688923,65.1753786" fill="#7DBD33"></path>
		<path d="M35.7295814,101.729903 L40.9759289,98.6992965 L46.2222764,101.729903 L46.2222764,107.787649 L40.9759289,110.814788 L35.7295814,107.787649 L35.7295814,101.729903" fill="#7DBD33"></path>
		<path d="M28.3611158,122.389347 L33.6074633,119.35874 L38.8538108,122.389347 L38.8538108,128.447092 L33.6074633,131.477699 L28.3611158,128.447092 L28.3611158,122.389347" fill="#07592B"></path>
		<path d="M0.0419352381,42.6365426 L5.28828275,39.6059361 L10.5346303,42.6365426 L10.5346303,48.6942883 L5.28828275,51.7248948 L0.0419352381,48.6942883 L0.0419352381,42.6365426" fill="#07592B"></path>
		<path d="M145.015196,11.6439094 L164.651723,0.308608677 L184.284783,11.6439094 L184.284783,34.3179784 L164.651723,45.6567467 L145.015196,34.3179784 L145.015196,11.6439094" fill="#07592B"></path>
		<path d="M104.334331,35.2854146 L120.874369,25.7358832 L137.410939,35.2854146 L137.410939,54.3844775 L120.874369,63.9340089 L104.334331,54.3844775 L104.334331,35.2854146" fill="#07592B"></path>
	</g>
</svg>

<svg width="256" height="210" viewBox="0 0 256 210" xmlns="http://www.w3.org/2000/svg" preserveAspectRatio="xMidYMid"><path d="M140.951 59.232l23.482-13.558 23.482 13.558v27.12l-23.482 13.554-23.482-13.555V59.232" fill="#07592B"/><path d="M154.85 61.78l32.774-18.922 32.771 18.923v37.844l-32.771 18.922-32.775-18.922V61.781" fill="#7DBD33"/><path d="M218.44 61.115l-30.83-17.99v-6.501l20.767-11.953 46.981 27.123v104.997l-90.928 52.498-39.124-22.477v-45.837l39.713-22.754 21.402 12.463V79.97l32.019-18.856" fill="#07592B"/><path d="M179.486 143.718l24.609-14.21 24.609 14.21v28.416l-24.61 14.21-24.608-14.21v-28.416M74.285 130.912l22.64-13.069 22.639 13.07v26.141l-22.64 13.07-22.64-13.07v-26.142" fill="#7DBD33"/><path d="M74.295 101.98l15.694-9.061 15.694 9.06v18.125l-15.694 9.06-15.694-9.06V101.98" fill="#07592B"/><path d="M73.91 52.19l21.606-12.473 21.607 12.473v24.948L95.516 89.614 73.91 77.138V52.19" fill="#7DBD33"/><path d="M116.658 84.184l23.721-13.693 23.718 13.693v27.387l-23.718 13.693-23.721-13.693V84.184M39.624 52.533l9.875-5.7 9.876 5.7v11.404l-9.876 5.701-9.875-5.7V52.532" fill="#07592B"/><path d="M44.391 106.713l9.876-5.7 9.875 5.7v11.404l-9.875 5.701-9.876-5.7v-11.405M112.996 165.497l12.317-7.111 12.316 7.111v14.22l-12.316 7.113-12.317-7.112v-14.22M24.169 65.175l5.246-3.03 5.25 3.03v6.058l-5.25 3.03-5.246-3.03v-6.058" fill="#7DBD33"/><path d="M35.73 101.73l5.246-3.03 5.246 3.03v6.058l-5.246 3.027-5.246-3.027v-6.058" fill="#7DBD33"/><path d="M28.361 122.39l5.246-3.031 5.247 3.03v6.058l-5.247 3.03-5.246-3.03v-6.058M.042 42.637l5.246-3.031 5.247 3.03v6.058l-5.247 3.03-5.246-3.03v-6.057M145.015 11.644L164.652.309l19.633 11.335v22.674l-19.633 11.339-19.637-11.339V11.644M104.334 35.285l16.54-9.55 16.537 9.55v19.1l-16.537 9.549-16.54-9.55V35.285" fill="#07592B"/></svg>
